icons/svg/tourist_colored/information_route_marker.svg

<svg width="48" height="48" fill="none" version="1.1" viewBox="0 0 48 48" xmlns="http://www.w3.org/2000/svg">
 <namedview bordercolor="#666666" borderopacity="1" gridtolerance="10" guidetolerance="10" objecttolerance="10" pagecolor="#ffffff" showgrid="true">
  <grid spacingx="2" spacingy="2" type="xygrid"/>
 </namedview>
 <path d="m24 4c1.1046 0 2 0.89543 2 2v38h-4v-38c0-1.1046 0.8954-2 2-2z" clip-rule="evenodd" fill="#ffffff" fill-rule="evenodd" opacity=".7"/>
 <path d="m12 8h18v-4l10 10-10 10v-4h-18z" fill="#ffffff"/>
</svg>

<svg xmlns:ns0="http://sodipodi.sourceforge.net/DTD/sodipodi-0.dtd" xmlns:ns1="http://www.inkscape.org/namespaces/inkscape" xmlns:rdf="http://www.w3.org/1999/02/22-rdf-syntax-ns#" width="48" height="48" viewBox="0 0 48 48" fill="none" version="1.1" id="svg8" ns0:docname="information_route_marker.svg" ns1:version="0.92.5 (2060ec1f9f, 2020-04-08)" xmlns="http://www.w3.org/2000/svg">
  <metadata id="metadata14">
    <RDF>
      <Work rdf:about="">
        <format>image/svg+xml</format>
        <type rdf:resource="http://purl.org/dc/dcmitype/StillImage" />
        <title />
      </Work>
    </RDF>
  </metadata>
  <defs id="defs12" />
  <namedview pagecolor="#ffffff" bordercolor="#666666" borderopacity="1" objecttolerance="10" gridtolerance="10" guidetolerance="10" ns1:pageopacity="0" ns1:pageshadow="2" ns1:window-width="1920" ns1:window-height="1014" id="namedview10" showgrid="true" ns1:zoom="6.9532167" ns1:cx="9.2416699" ns1:cy="23.562141" ns1:window-x="1920" ns1:window-y="0" ns1:window-maximized="1" ns1:current-layer="svg8">
    <grid type="xygrid" id="grid821" spacingx="2" spacingy="2" />
  </namedview>
  <path opacity="0.7" fill-rule="evenodd" clip-rule="evenodd" d="M24 4C25.1046 4 26 4.89543 26 6V44H22V6C22 4.89543 22.8954 4 24 4Z" fill="white" id="path2" style="fill:#ffffff;fill-opacity:1" />
  <path d="M 12,8 H 30 V 4 L 40,14 30,24 V 20 H 12 Z" id="path4" style="fill:#ffffff;fill-opacity:1" ns1:connector-curvature="0" ns0:nodetypes="cccccccc" />
</svg>
